X: 31769
T: Patrick Maloney's Favourite
R: jig
M: 6/8
K: Gmajor
~G3 GAB|ded BAG|A2A ABd|efe dBA|
~G3 GAB|ded BAG|A2A B2A|1 GBE EDE:|2 GED E2B||
~e3 ede|faf ged|ede gfe|dBA B2B|
~e3 ede|faf ged|ABc B2A|1 GED E2B:|2 GBE EDE||

